X: 6
M:6/8
L:1/8
K:D
"Andante"F/2G/2|Aff f2 e/2f/2|gBe dcB|Add dcd|fee e2 F/2G/2|
eee e2 d/2e/2|gBe dcB|Add dcd|fee e2 F/2G/2|

